packages/sights/assets/overlays/0U14gFyk.svg

<svg width="500" height="375" viewBox="0 0 500 375" fill="none" xmlns="http://www.w3.org/2000/svg">
<path d="M169.78 11.8899C169.78 11.8899 253.85 52.8899 285.96 75.5099C285.96 75.5099 426.64 81.3199 492.96 106.08" stroke="white" stroke-miterlimit="10"/>
<path d="M7 252.64L269.75 280.85C269.75 280.85 251.87 167.3 378.44 163.18C378.44 163.18 474.8 160.42 493 245.03" stroke="white" stroke-miterlimit="10"/>
<path d="M382.22 363.36C435.979 363.36 479.56 321.011 479.56 268.77C479.56 216.529 435.979 174.18 382.22 174.18C328.46 174.18 284.88 216.529 284.88 268.77C284.88 321.011 328.46 363.36 382.22 363.36Z" stroke="white" stroke-miterlimit="10"/>
<path d="M269.75 280.81L287.07 248.78" stroke="white" stroke-miterlimit="10"/>
<path d="M139.28 48.98C139.28 48.98 157.39 38.67 177.11 42.98L209.9 60.45L205.32 74.45C205.32 74.45 222.97 79.26 241.09 78.57L244.53 87.75C244.53 87.75 177.34 89.12 149.83 76.05C149.83 76.04 142.26 75.12 139.28 48.98Z" stroke="white" stroke-miterlimit="10"/>
<path d="M141.39 61.3C141.39 61.3 181.7 67.5601 205.32 74.4401" stroke="white" stroke-miterlimit="10"/>
<path d="M139.28 11C139.28 11 217.28 53.8 241.09 78.56" stroke="white" stroke-miterlimit="10"/>
<path d="M7 81.3201L187.28 84.9601" stroke="white" stroke-miterlimit="10"/>
<path d="M32.89 11C32.89 11 26 56.55 28.07 79.48L23.25 86.13L20.73 109.29L21.8 112.04C21.8 112.04 30.06 184.35 35 204.53L37.14 241.82L45.98 256.82" stroke="white" stroke-miterlimit="10"/>
<path d="M7 215.84L257.22 241.21C257.22 241.21 272.5 148.27 374.77 150.1C374.77 150.1 447.05 142.77 493 210.64" stroke="white" stroke-miterlimit="10"/>
<path d="M41.3702 117.54C41.3702 117.54 37.9902 119.44 38.4502 120.07L56.9002 120.64C56.9002 120.64 60.2302 117.89 62.6902 118.81C62.6902 118.81 69.6302 119.95 70.1502 122.93L69.4002 127.46H67.3402L31.6802 126.54L28.9302 125.17L28.1802 120.3L30.5402 118.12C34.1203 117.551 37.7498 117.357 41.3702 117.54V117.54Z" stroke="white" stroke-miterlimit="10"/>
<path d="M244.53 87.74C244.53 87.74 255.53 174.28 244.53 239.93" stroke="white" stroke-miterlimit="10"/>
</svg>

<svg width="500" height="375" fill="none" xmlns="http://www.w3.org/2000/svg"><path d="M169.78 11.89s84.07 41 116.18 63.62c0 0 140.68 5.81 207 30.57M7 252.64l262.75 28.21S251.87 167.3 378.44 163.18c0 0 96.36-2.76 114.56 81.85" stroke="#fff" stroke-miterlimit="10"/><path d="M382.22 363.36c53.759 0 97.34-42.349 97.34-94.59 0-52.241-43.581-94.59-97.34-94.59-53.76 0-97.34 42.349-97.34 94.59 0 52.241 43.58 94.59 97.34 94.59ZM269.75 280.81l17.32-32.03M139.28 48.98s18.11-10.31 37.83-6l32.79 17.47-4.58 14s17.65 4.81 35.77 4.12l3.44 9.18s-67.19 1.37-94.7-11.7c0-.01-7.57-.93-10.55-27.07Z" stroke="#fff" stroke-miterlimit="10"/><path d="M141.39 61.3s40.31 6.26 63.93 13.14M139.28 11s78 42.8 101.81 67.56M7 81.32l180.28 3.64M32.89 11S26 56.55 28.07 79.48l-4.82 6.65-2.52 23.16 1.07 2.75s8.26 72.31 13.2 92.49l2.14 37.29 8.84 15" stroke="#fff" stroke-miterlimit="10"/><path d="m7 215.84 250.22 25.37s15.28-92.94 117.55-91.11c0 0 72.28-7.33 118.23 60.54M41.37 117.54s-3.38 1.9-2.92 2.53l18.45.57s3.33-2.75 5.79-1.83c0 0 6.94 1.14 7.46 4.12l-.75 4.53h-2.06l-35.66-.92-2.75-1.37-.75-4.87 2.36-2.18c3.58-.569 7.21-.763 10.83-.58Z" stroke="#fff" stroke-miterlimit="10"/><path d="M244.53 87.74s11 86.54 0 152.19" stroke="#fff" stroke-miterlimit="10"/></svg>
